gama.ui.shared/icons_svg/dark/experiment/experiment.stop.svg

<svg height="25" viewBox="-562.839 -3200.452 25 25" width="25" xmlns="http://www.w3.org/2000/svg"><g fill="none"><circle cx="-550.339" cy="-3187.952" fill="#666" r="12"/><circle cx="-550.339" cy="-3187.952" r="12" stroke="#fff" stroke-linecap="round" stroke-linejoin="round" stroke-width=".25"/><path d="m-550.33903-3188.8466 5.15413-5.1417c.2484-.2484.6334-.2484.8818 0 .2484.2483.2484.6333 0 .8818l-5.15414 5.1541 5.15414 5.1541c.2484.2483.2484.6333 0 .8818s-.6334.2485-.8818 0l-5.15413-5.1541-5.15417 5.1293c-.24836.2483-.6334.2483-.88176 0-.24839-.2484-.24839-.6334 0-.8817l5.15416-5.1542-5.14174-5.1418c-.24839-.236-.24839-.6333 0-.8693.23594-.2484.6334-.2484.86934 0l5.15417 5.1543z" fill="#fc6d7e"/></g></svg>

<?xml version="1.0" encoding="UTF-8" standalone="no"?>
<!DOCTYPE svg PUBLIC "-//W3C//DTD SVG 1.1//EN" "http://www.w3.org/Graphics/SVG/1.1/DTD/svg11.dtd">
<svg xmlns:dc="http://purl.org/dc/elements/1.1/" version="1.1" xmlns="http://www.w3.org/2000/svg" xmlns:xl="http://www.w3.org/1999/xlink" viewBox="-562.839 -3200.4524 24.999996 25" width="24.999996" height="25">
  <defs/>
  <g id="SOURCES" stroke="none" stroke-dasharray="none" fill-opacity="1" stroke-opacity="1" fill="none">
    <title>SOURCES</title>
    <g id="SOURCES_Dark">
      <title>Dark</title>
      <g id="Graphic_12520">
        <circle cx="-550.33903" cy="-3187.9524" r="12.000018268838" fill="#666"/>
        <circle cx="-550.33903" cy="-3187.9524" r="12.000018268838" stroke="white" stroke-linecap="round" stroke-linejoin="round" stroke-width=".25"/>
      </g>
      <g id="Graphic_12521">
        <path d="M -550.33903 -3188.8466 L -545.1849 -3193.9883 C -544.9365 -3194.2367 -544.5515 -3194.2367 -544.3031 -3193.9883 C -544.0547 -3193.74 -544.0547 -3193.355 -544.3031 -3193.1065 L -549.45724 -3187.9524 L -544.3031 -3182.7983 C -544.0547 -3182.55 -544.0547 -3182.165 -544.3031 -3181.9165 C -544.5515 -3181.668 -544.9365 -3181.668 -545.1849 -3181.9165 L -550.33903 -3187.0706 L -555.4932 -3181.9413 C -555.74156 -3181.693 -556.1266 -3181.693 -556.37496 -3181.9413 C -556.62335 -3182.1897 -556.62335 -3182.5747 -556.37496 -3182.823 L -551.2208 -3187.9772 L -556.36254 -3193.119 C -556.61093 -3193.355 -556.61093 -3193.7523 -556.36254 -3193.9883 C -556.1266 -3194.2367 -555.72914 -3194.2367 -555.4932 -3193.9883 L -550.33903 -3188.834 Z" fill="#fc6d7e"/>
      </g>
    </g>
  </g>
</svg>
